svgs/sharp-light/vr-cardboard.svg

<svg xmlns="http://www.w3.org/2000/svg" viewBox="0 0 640 512"><!--! Font Awesome Pro 6.6.0 by @fontawesome - https://fontawesome.com License - https://fontawesome.com/license (Commercial License) Copyright 2024 Fonticons, Inc. --><path d="M336 320l64 128 208 0 32 0 0-32 0-320 0-32-32 0L32 64 0 64 0 96 0 416l0 32 32 0 208 0 64-128 32 0zM220.2 416L32 416 32 96l576 0 0 320-188.2 0L364.6 305.7 355.8 288 336 288l-32 0-19.8 0-8.8 17.7L220.2 416zM176 192a48 48 0 1 1 0 96 48 48 0 1 1 0-96zm0 128a80 80 0 1 0 0-160 80 80 0 1 0 0 160zm240-80a48 48 0 1 1 96 0 48 48 0 1 1 -96 0zm128 0a80 80 0 1 0 -160 0 80 80 0 1 0 160 0z"/></svg>

<svg xmlns="http://www.w3.org/2000/svg" viewBox="0 0 640 512"><!--! Font Awesome Pro 6.4.0 by @fontawesome - https://fontawesome.com License - https://fontawesome.com/license (Commercial License) Copyright 2023 Fonticons, Inc. --><path d="M336 320l64 128H608h32V416 96 64H608 32 0V96 416v32H32 240l64-128h32zM220.2 416H32V96H608V416H419.8L364.6 305.7 355.8 288H336 304 284.2l-8.8 17.7L220.2 416zM176 192a48 48 0 1 1 0 96 48 48 0 1 1 0-96zm0 128a80 80 0 1 0 0-160 80 80 0 1 0 0 160zm240-80a48 48 0 1 1 96 0 48 48 0 1 1 -96 0zm128 0a80 80 0 1 0 -160 0 80 80 0 1 0 160 0z"/></svg>
